Obsidian/actions/24s/format-line-spacing-normal.svg

<svg height="24" viewBox="0 0 24 24" width="24" xmlns="http://www.w3.org/2000/svg"><path d="m5 4v1h-3v6h3v1h9v-3h-9v1h-2v-1h1v-2h-1v-1h2v1h9v-3z" fill="#bebebe" transform="translate(4 4)"/></svg>

<svg xmlns="http://www.w3.org/2000/svg" width="24" height="24" viewBox="0 0 24 24">
 <defs>
  <style id="current-color-scheme" type="text/css">
   .ColorScheme-Text { color:#bebebe; } .ColorScheme-Highlight { color:#4285f4; }
  </style>
 </defs>
 <path style="fill:currentColor" class="ColorScheme-Text" d="M 5 4 L 5 5 L 2 5 L 2 11 L 5 11 L 5 12 L 14 12 L 14 9 L 5 9 L 5 10 L 3 10 L 3 9 L 4 9 L 4 7 L 3 7 L 3 6 L 5 6 L 5 7 L 14 7 L 14 4 L 5 4 z" transform="translate(4 4)"/>
</svg>
